X: 121209
T: Lad O'Beirne's [c]
Z: B.Black
S: "Lamh ar Lamh" v1, tr 13B
D: Hanley, Carty, McGowan, Gaffney
L: 1/8
M: 4/4
R: reel
K: D
D2 (3FED ADFA|dfed BAFE|D2 (3FED ADFA|BF F2 EDB,C|
D2 (3FED ADFA|(3BcB AF DEFA|(3BcB AB GABc|1 dBAF EGFE :|2\
dBAF E3 A||
dcdf efdc|BAFE D4|d2 df edBA|(3Bcd fd e2 Bc|
dcdf efdc|BAFE DEFA|(3BcB AB GABc|dBAF EGFE :|
